local/share/icons/dracula-icons-main/22/actions/appointment-soon.svg

<?xml version="1.0" encoding="UTF-8"?>
<svg xmlns="http://www.w3.org/2000/svg" xmlns:xlink="http://www.w3.org/1999/xlink" width="22" height="22" viewBox="0 0 22 22">
<path fill-rule="nonzero" fill="rgb(100%, 100%, 100%)" fill-opacity="1" d="M 5 4 C 4 4 4 5 4 5 L 4 17 C 4 18 5 18 5 18 L 11.761719 18 C 11.363281 17.402344 11.113281 16.714844 11.03125 16 L 6 16 L 6 9 L 16 9 L 16 11.03125 C 16.714844 11.109375 17.402344 11.359375 18 11.761719 L 18 5 C 18 4 17 4 17 4 Z M 15.5 12 C 13.566406 12 12 13.566406 12 15.5 C 12 17.433594 13.566406 19 15.5 19 C 17.433594 19 19 17.433594 19 15.5 C 19 13.566406 17.433594 12 15.5 12 Z M 15 13 L 16 13 L 16 15 L 18 15 L 18 16 L 15 16 Z M 15 13 "/>
</svg>

<svg xmlns="http://www.w3.org/2000/svg" width="22" height="22" version="1.1" viewBox="0 0 22 22">
 <defs>
  <style id="current-color-scheme" type="text/css">
   .ColorScheme-Text { color:#FFFFFF; } .ColorScheme-Highlight { color:#5294e2; }
  </style>
 </defs>
 <path style="fill:currentColor" class="ColorScheme-Text" d="M 5,4 C 4,4 4,5 4,5 v 12 c 0,1 1,1 1,1 h 6.761719 A 4.5,4.5 0 0 1 11.033203,16 H 6 V 9 h 10 v 2.03125 a 4.5,4.5 0 0 1 2,0.728516 V 5 C 18,4 17,4 17,4 Z m 10.5,8 A 3.5,3.5 0 0 0 12,15.5 3.5,3.5 0 0 0 15.5,19 3.5,3.5 0 0 0 19,15.5 3.5,3.5 0 0 0 15.5,12 Z M 15,13 h 1 v 2 h 2 v 1 h -2 -1 v -1 z"/>
</svg>
